brandFactory_export/1.Light/Usuario_Micuenta_persona_1Light.svg

<?xml version="1.0" encoding="UTF-8"?>
<svg width="24px" height="24px" viewBox="0 0 24 24" version="1.1" xmlns="http://www.w3.org/2000/svg" xmlns:xlink="http://www.w3.org/1999/xlink">
    <title>1.Light/Usuario_Micuenta_persona_1Light</title>
    <g id="Symbols" stroke="none" stroke-width="1" fill="none" fill-rule="evenodd">
        <g id="1.Light/Usuario_Micuenta_persona_1Light" fill="#5CB615" fill-rule="nonzero">
            <path d="M21.6857143,23.6134454 L1.36638655,23.6134454 C1.18151261,23.6134454 1.0302521,23.4621849 1.0302521,23.2773109 L1.0302521,20.6554622 C1.0302521,18.8638655 1.58823529,17.3378151 2.64033613,16.2420168 C3.78991597,15.0521008 5.50756303,14.4201681 7.60504202,14.4201681 L15.4470588,14.4201681 C17.5445378,14.4201681 19.2621849,15.0521008 20.4117647,16.2453782 C21.4672269,17.3411765 22.0218487,18.8672269 22.0218487,20.6588235 L22.0218487,23.2806723 C22.0218487,23.4621849 21.8705882,23.6134454 21.6857143,23.6134454 Z M1.70252101,22.9411765 L21.3495798,22.9411765 L21.3495798,20.6554622 C21.3495798,19.0420168 20.8588235,17.6773109 19.9277311,16.7092437 C18.892437,15.6369748 17.3865546,15.092437 15.4470588,15.092437 L7.60504202,15.092437 C5.66554622,15.092437 4.15966387,15.6369748 3.12436975,16.7092437 C2.19327731,17.6773109 1.70252101,19.0386555 1.70252101,20.6554622 L1.70252101,22.9411765 Z M11.5243697,11.8151261 C7.66554622,11.8151261 5.62521008,9.77478992 5.62521008,5.91596639 C5.62521008,3.95630252 6.14957983,2.45714286 7.18487395,1.45546218 C8.18319328,0.490756303 9.64201681,0 11.5243697,0 C13.4067227,0 14.8689076,0.490756303 15.8739496,1.45546218 C16.9159664,2.45714286 17.4403361,3.95966387 17.4403361,5.91596639 C17.4403361,9.77478992 15.3966387,11.8151261 11.5243697,11.8151261 Z M11.5243697,0.672268908 C9.82352941,0.672268908 8.51932773,1.09915966 7.65210084,1.9394958 C6.75462185,2.81008403 6.29747899,4.14789916 6.29747899,5.91596639 C6.29747899,7.68403361 6.75462185,9.01848739 7.65210084,9.88235294 C8.51932773,10.7193277 9.82352941,11.1394958 11.5243697,11.1394958 C13.2252101,11.1394958 14.5361345,10.7159664 15.4067227,9.8789916 C16.3109244,9.01176471 16.7680672,7.67731092 16.7680672,5.91260504 C16.7680672,4.14789916 16.3109244,2.80672269 15.4067227,1.93613445 C14.5327731,1.09915966 13.2285714,0.672268908 11.5243697,0.672268908 Z" id="Usuario_Micuenta_persona_1Light"></path>
        </g>
    </g>
</svg>

<svg width="24" height="24" viewBox="0 0 24 24" xmlns="http://www.w3.org/2000/svg"><path d="M21.686 23.613H1.366a.337.337 0 01-.336-.336v-2.622c0-1.791.558-3.317 1.61-4.413 1.15-1.19 2.868-1.822 4.965-1.822h7.842c2.098 0 3.815.632 4.965 1.825 1.055 1.096 1.61 2.622 1.61 4.414v2.622a.336.336 0 01-.336.332zm-19.983-.672H21.35v-2.286c0-1.613-.491-2.978-1.422-3.946-1.036-1.072-2.541-1.617-4.48-1.617H7.604c-1.94 0-3.445.545-4.48 1.617-.932.968-1.422 2.33-1.422 3.946v2.286zm9.821-11.126c-3.858 0-5.899-2.04-5.899-5.899 0-1.96.525-3.459 1.56-4.46C8.183.49 9.642 0 11.525 0c1.882 0 3.344.49 4.349 1.455 1.042 1.002 1.566 2.505 1.566 4.461 0 3.859-2.043 5.9-5.916 5.9zm0-11.143c-1.7 0-3.005.427-3.872 1.267-.897.871-1.355 2.209-1.355 3.977 0 1.768.458 3.102 1.355 3.966.867.837 2.172 1.257 3.872 1.257 1.701 0 3.012-.423 3.883-1.26.904-.867 1.361-2.202 1.361-3.966 0-1.765-.457-3.106-1.361-3.977C14.533 1.1 13.229.672 11.524.672z" fill="#5CB615" fill-rule="nonzero"/></svg>
